X: 23851
T: Liverpool, The
R: hornpipe
M: 4/4
K: Dmajor
|:AG|"D"(3FED FA dfaf|"G"gfed "A"dcBA|"G"G2BG "D"F2AF|"Em"EDEF "A7"GBAG|
"D"(3FED FA dfaf|"G"gfed "A"dcBA|"D"dfaf "A7"bgec|"D"dzdc d2:|
|:(3ABc|"D"d2fd "A"c2ec|"G"BABc dcBA|"G"G2BG "D"F2AF|"Em"EDEF "A7"GBAG|
"D"(3FED FA dfaf|"G"gfec "A"dcBA|"D"dfaf "A7"bgec|"D"dzdc d2:|

